X:75
T:The Skipper
C:Viveka Fox
S:Bernie Waugh
R:Reel
M:4/4
L:1/8
K:Em
FD|:\
"Em"E/E/EBE DEB,E|"C"CEDE "G"~GFGB|"D"AGFA d^cdB|"Bm"AGFE CEB,E|
"Em"E/E/EBE DEB,E|"G"CEDE GFGB|"C"AGFA d^cdA|1"Bm"Bgfg BAGF:|2\
"Bm"Bgfg "A"Bee/e/e||
|:\
"D"^cdfd edBA|"G"[B/G/][B/G/][BG]GB ADEG|\
"Em"EB,B,/B,/B, EFGF|"C"ECC/C/C EFGA|
"D"d2fd edBA|"G"[B/G/][B/G/][BG]GB ADEG|\
"Em"EB,B,/B,/B, EFGA|1"Bm"Bgfg "A"Bee/e/e:|2\
"Bm"Bgfg BAGF|]

